!!!!SEGMENT: Snf0242-Regina_caeli_laetare_Conscendit_iubilans--Regensburg_C120.krn
!!!id: Snf0242
!!!AGN: Motet
!!!voices: 4
!!!COM: Ludwig Senfl
!!!SMS: Regensburg C120
!!!OTL: Regina caeli, laetare / Conscendit iubilans (Regensburg C120)
**kern	**text	**kern	**text	**kern	**text	**kern	**text
*part4	*part4	*part3	*part3	*part2	*part2	*part1	*part1
*staff4	*staff4	*staff3	*staff3	*staff2	*staff2	*staff1	*staff1
*I"Bassus	*	*I"Tenor	*	*I"Altus	*	*I"Superius	*
*I'B	*	*I'T	*	*I'A	*	*I'S	*
*clefF4	*	*clefGv2	*	*clefGv2	*	*clefG2	*
*k[b-]	*	*k[b-]	*	*k[b-]	*	*k[b-]	*
*F:	*	*F:	*	*F:	*	*F:	*
*M2/1	*	*M2/1	*	*M2/1	*	*M2/1	*
*met(C|)	*	*met(C|)	*	*met(C|)	*	*met(C|)	*
!!section: Prima pars: Regina caeli, laetare / Conscendit iubilans
!!!OMD: Prima pars: Regina caeli, laetare / Conscendit iubilans
0FF	Re-	[0F	Re-	1c	Con-	0r	.
.	.	.	.	1A	-scen-	.	.
=1	=1	=1	=1	=1	=1	=1	=1
2.BB-y	-gi-	0F]	.	1B-y	-dit	0r	.
4C	.	.	.	.	.	.	.
4D	.	.	.	1A	.	.	.
4E	.	.	.	.	.	.	.
[2F	.	.	.	.	.	.	.
=2	=2	=2	=2	=2	=2	=2	=2
2F]	.	0G	-gi-	1G	iu-	0r	.
4E	.	.	.	.	.	.	.
4D	.	.	.	.	.	.	.
1E	.	.	.	1c	-bi-	.	.
=3	=3	=3	=3	=3	=3	=3	=3
1F	-na	1F	-na	1c	-lans	0r	.
1E	.	1G	cae-	1c	lae-	.	.
=4	=4	=4	=4	=4	=4	=4	=4
2.D	cae-	1A	.	1d	.	[0f	Re-
4E	.	.	.	.	.	.	.
1F	.	1A	-li,	1c	.	.	.
=5	=5	=5	=5	=5	=5	=5	=5
2.BB-y	.	2r	.	1B-y	-tus	0f]	.
.	.	2.d	lae-	.	.	.	.
4C	.	.	.	.	.	.	.
1D	.	.	.	1A	.	.	.
.	.	4c	.	.	.	.	.
.	.	2A	.	.	.	.	.
=6	=6	=6	=6	=6	=6	=6	=6
2GG	-li,	1B-y	.	1G	ad	0g	-gi-
2G	lae-	.	.	.	.	.	.
2E	-ta-	2G	.	1c	.	.	.
2C	.	2c	.	.	.	.	.
=7	=7	=7	=7	=7	=7	=7	=7
2F	.	2F	.	1c	ae-	1f	-na
2A	.	1f	-ta-	.	.	.	.
1G	.	.	.	1B-y	-the-	1g	cae-
.	.	2e	.	.	.	.	.
=8	=8	=8	=8	=8	=8	=8	=8
1F	-re,	1f	.	1c	.	1a	.
1A	.	2e	.	1c	-ra,	1a	-li,
.	.	2c	.	.	.	.	.
=9	=9	=9	=9	=9	=9	=9	=9
0G	.	1d	-re,	1r	.	0b-y	lae-
.	.	2r	.	1B-y	san-	.	.
.	.	[2d	lae-	.	.	.	.
=10	=10	=10	=10	=10	=10	=10	=10
2.D	lae-	2d]	.	1d	-cto-	0a	-ta-
.	.	4c	.	.	.	.	.
4E	.	4B-y	.	.	.	.	.
1F	.	2A	.	1c	.	.	.
.	.	2c	.	.	.	.	.
=11	=11	=11	=11	=11	=11	=11	=11
2BB-y	-ta-	2B-y	.	1d	-rum	0g	.
2GG	.	1d	.	.	.	.	.
1C	.	.	.	1e	.	.	.
.	.	2c	.	.	.	.	.
=12	=12	=12	=12	=12	=12	=12	=12
1.BB-y	.	2d	-ta-	1.f	.	[0b-y	.
.	.	2.B-y	.	.	.	.	.
.	.	4A	.	.	.	.	.
2C	.	2G	.	2e	.	.	.
=13	=13	=13	=13	=13	=13	=13	=13
2D	.	1F	-re,	1d	po-	1b-]	.
2BB-y	.	.	.	.	.	.	.
2.F	.	1r	.	1c	-pu-	[1a	.
4E	.	.	.	.	.	.	.
=14	=14	=14	=14	=14	=14	=14	=14
2.D	.	2r	.	1d	.	1a]	.
.	.	2.F	al-	.	.	.	.
4C	.	.	.	.	.	.	.
1D	.	.	.	1d	-lus	1f	.
.	.	4G	.	.	.	.	.
.	.	2A	.	.	.	.	.
=15	=15	=15	=15	=15	=15	=15	=15
2.GG	.	1G	-le-	2r	.	2.g	.
.	.	.	.	1d	prae-	.	.
4AA	.	.	.	.	.	4f	.
2BB-y	.	2D	.	.	.	2g	.
2AA	.	2E	.	2c	-di-	2a	.
=16	=16	=16	=16	=16	=16	=16	=16
2BB-y	.	2.D	.	2B-y	-cat	2g	.
1D	.	.	.	2A	.	1f	.
.	.	4E	.	.	.	.	.
.	.	4F	.	2B-y	in-	.	.
.	.	4D	.	.	.	.	.
2C	.	2G	.	[2c	.	2e	.
=17	=17	=17	=17	=17	=17	=17	=17
2.D	.	2F	-lu-	2c]	.	0f	-re,
.	.	2D	-ia,	2B-y	-cli-	.	.
8CL	.	.	.	.	.	.	.
8BB-yJ	.	.	.	.	.	.	.
2AA	.	2r	.	1c	-tum,	.	.
2FF	.	[2A	al-	.	.	.	.
=18	=18	=18	=18	=18	=18	=18	=18
1F	-re,	4A]	.	2r	.	0r	.
.	.	4G	.	.	.	.	.
.	.	4A	.	2c	con-	.	.
.	.	4B-y	.	.	.	.	.
1C	.	2.c	.	1e	-ci-	.	.
.	.	4B-y	.	.	.	.	.
=19	=19	=19	=19	=19	=19	=19	=19
1r	.	4A	.	2f	.	0r	.
.	.	4G	.	.	.	.	.
.	.	2B-y	.	1g	-nit	.	.
1D	al-	1A	.	.	.	.	.
.	.	.	.	2f#i	pa-	.	.
=20	=20	=20	=20	=20	=20	=20	=20
1.G	-le-	1.G	-le-	1g	-ri-	0b-y	al-
.	.	.	.	1g	-ter	.	.
2F	.	2A	.	.	.	.	.
=21	=21	=21	=21	=21	=21	=21	=21
2E	.	2B-y	.	2r	.	1g	-le-
2C	.	2c	.	2g	an-	.	.
1F	-lu-	2A	.	1a	.	1f	.
.	.	2F	.	.	.	.	.
=22	=22	=22	=22	=22	=22	=22	=22
1C	-ia,	1c	.	1g	.	1e	.
2r	.	2F	.	2f	-ge-	2r	.
2C	al-	[2c	.	2e	.	2g	-lu-
=23	=23	=23	=23	=23	=23	=23	=23
2F	-le-	2c]	.	1f	.	1a	.
2D	.	2d	.	.	.	.	.
2G	.	4B-y	.	1d	-li-	2g	.
.	.	4A	.	.	.	.	.
2GG	.	4G	.	.	.	2b-y	.
.	.	4F	.	.	.	.	.
=24	=24	=24	=24	=24	=24	=24	=24
2AA	.	2E	.	1c	.	2.a	.
2FF	.	2F	.	.	.	.	.
.	.	.	.	.	.	8gL	.
.	.	.	.	.	.	8fJ	.
1C	.	2G	.	1c	-cus	2e	.
.	.	2E	.	.	.	[2g	.
=25	=25	=25	=25	=25	=25	=25	=25
1D	.	1F	-lu-	1B-y	cho-	4g]	.
.	.	.	.	.	.	4f	.
.	.	.	.	.	.	1f	.
1C	-lu-	1G	.	1c	.	.	.
.	.	.	.	.	.	2e	.
=26	=26	=26	=26	=26	=26	=26	=26
[0FF	-ia,	2F	-ia,	1c	-rus	[0f	-ia,
.	.	2C	al-	.	.	.	.
.	.	2.F	-le-	2r	.	.	.
.	.	.	.	2c	vi-	.	.
.	.	4G	.	.	.	.	.
=27	=27	=27	=27	=27	=27	=27	=27
1FF]	.	1A	-lu-	1c	-cto-	0f]	.
2.BB-y	al-	1D	-ia,	1B-y	.	.	.
4C	.	.	.	.	.	.	.
=28	=28	=28	=28	=28	=28	=28	=28
1D	.	2r	.	1A	.	1r	.
.	.	2F	al-	.	.	.	.
2GG	.	2.G	le-	1B-y	-ris	[1b-y	al-
[2G	-le-	.	.	.	.	.	.
.	.	4A	.	.	.	.	.
=29	=29	=29	=29	=29	=29	=29	=29
2G]	.	2B-y	.	1G	bo-	1b-]	.
1E-X	.	2G	.	.	.	.	.
.	.	2.G	.	1c	-ni	1g	-le-
2C	.	.	.	.	.	.	.
.	.	4A	.	.	.	.	.
=30	=30	=30	=30	=30	=30	=30	=30
2D	.	2B-y	.	1r	.	2f	.
2.C	.	2c	.	.	.	2e	.
.	.	2G	.	2r	.	1g	.
4D	.	.	.	.	.	.	.
2E	.	2c	.	[2c	glo-	.	.
=31	=31	=31	=31	=31	=31	=31	=31
2F	.	2A	.	2c]	.	2a	-lu-
2D	.	2B-y	.	2B-y	.	1f	.
1C	-lu-	1G	-lu-	1c	-ri-	.	.
.	.	.	.	.	.	2e	.
=32	=32	=32	=32	=32	=32	=32	=32
00FF	-ia.	00F	-ia.	00c	-am.	00f	-ia.
=33||	=33||	=33||	=33||	=33||	=33||	=33||	=33||
*M2/1	*	*M2/1	*	*M2/1	*	*M2/1	*
*met(C|)	*	*met(C|)	*	*met(C|)	*	*met(C|)	*
!!section: Secunda pars: Quia quem meruisti portare / Gloria, laus et honor
!!!OMD: Secunda pars: Quia quem meruisti portare / Gloria, laus et honor
0r	.	0r	.	1c	Qui-	0r	.
.	.	.	.	2g	quem,	.	.
.	.	.	.	2g	.	.	.
=34	=34	=34	=34	=34	=34	=34	=34
1FF	Qui-	0r	.	1a	.	0r	.
2C	-a	.	.	1g	.	.	.
2C	quem,	.	.	.	.	.	.
=35	=35	=35	=35	=35	=35	=35	=35
1D	.	0d	Glo-	2r	.	0r	.
.	.	.	.	2.f	qui-	.	.
2r	.	.	.	.	.	.	.
.	.	.	.	4e	.	.	.
2BB-y	qui-	.	.	4f	.	.	.
.	.	.	.	4g	.	.	.
=36	=36	=36	=36	=36	=36	=36	=36
2F	-a	1c	-ri-	2a	.	0r	.
2F	quem	.	.	1g	-a	.	.
1G	.	1B-y	.	.	.	.	.
.	.	.	.	2f	.	.	.
=37	=37	=37	=37	=37	=37	=37	=37
2.F	.	1c	-a,	0f	quem	0r	.
4E	.	.	.	.	.	.	.
[1D	.	1d	.	.	.	.	.
=38	=38	=38	=38	=38	=38	=38	=38
2D]	.	0d	laus	1r	.	0f	Qui-
2C	.	.	.	.	.	.	.
1BB-y	.	.	.	2r	.	.	.
.	.	.	.	2d	me-	.	.
=39	=39	=39	=39	=39	=39	=39	=39
0AA	.	1r	.	2.e	-ru-	1cc	-a
.	.	.	.	4f	.	.	.
.	.	[1c	et	2e	-i-	1cc	quem
.	.	.	.	2c	.	.	.
=40	=40	=40	=40	=40	=40	=40	=40
0GG	.	1c]	.	1g	-sti,	0dd	.
.	.	1B-y	.	2r	.	.	.
.	.	.	.	2d	me-	.	.
=41	=41	=41	=41	=41	=41	=41	=41
2r	.	1c	ho-	2.e	-ru-	0cc	.
2.C	me-	.	.	.	.	.	.
.	.	.	.	4f	.	.	.
.	.	1c	-nor	2e	-i-	.	.
4BB-y	.	.	.	.	.	.	.
2AA	.	.	.	2c	.	.	.
=42	=42	=42	=42	=42	=42	=42	=42
2GG	.	0d	.	1g	-sti	1b-y	me-
1G	-ru-	.	.	.	.	.	.
.	.	.	.	1r	.	1a	.
2F	.	.	.	.	.	.	.
=43	=43	=43	=43	=43	=43	=43	=43
2G	.	1B-y	ti-	1r	.	1g	-ru-
2GG	-i-	.	.	.	.	.	.
1D	-sti	1A	-bi	2r	.	1f	.
.	.	.	.	[2d	por-	.	.
=44	=44	=44	=44	=44	=44	=44	=44
1r	.	[0G	sit,	4d]	.	1g	-i-
.	.	.	.	4c	.	.	.
.	.	.	.	4B-y	.	.	.
.	.	.	.	4A	.	.	.
[1GG	por-	.	.	2G	.	1b-y	.
.	.	.	.	[2g	-ta-	.	.
=45	=45	=45	=45	=45	=45	=45	=45
2GG]	.	0G_	.	2g]	.	0b-y	-sti
2AA	.	.	.	4f	.	.	.
.	.	.	.	4e	.	.	.
1BB-y	.	.	.	1d	.	.	.
=46	=46	=46	=46	=46	=46	=46	=46
1C	-ta-	0G]	.	1e	.	1r	.
2GG	.	.	.	1d	-re,	[1b-y	por-
[2G	.	.	.	.	.	.	.
=47	=47	=47	=47	=47	=47	=47	=47
2G]	.	0r	.	2r	.	1b-]	.
2E	.	.	.	2.g	por-	.	.
1F	.	.	.	.	.	1a	.
.	.	.	.	4f	.	.	.
.	.	.	.	[2f	-ta-	.	.
=48	=48	=48	=48	=48	=48	=48	=48
0C	-re,	0c	Rex	2f]	.	0g	.
.	.	.	.	4e	.	.	.
.	.	.	.	4d	.	.	.
.	.	.	.	1e	.	.	.
=49	=49	=49	=49	=49	=49	=49	=49
0F	.	0c	Chri-	0f	-re,	0a	.
=50	=50	=50	=50	=50	=50	=50	=50
1.E-X	.	0G	-ste,	2r	.	0b-y	.
.	.	.	.	2.B-y	por-	.	.
.	.	.	.	4c	.	.	.
2D	.	.	.	2d	.	.	.
=51	=51	=51	=51	=51	=51	=51	=51
2.C	.	1c	Red-	2.e-X	-ta-	0cc	.
4BB-y	.	.	.	4d	.	.	.
2AA	.	1c	-em-	4c	.	.	.
.	.	.	.	4B-y	.	.	.
2FF	.	.	.	2c	.	.	.
=52	=52	=52	=52	=52	=52	=52	=52
0BB-y	.	[0B-y	-ptor:	[0d	-re,	0f	-ta-
=53	=53	=53	=53	=53	=53	=53	=53
2r	.	0B-]	.	0d]	.	0g	.
2GG	al-	.	.	.	.	.	.
2.GG	-le-	.	.	.	.	.	.
4AA	.	.	.	.	.	.	.
=54	=54	=54	=54	=54	=54	=54	=54
2BB-y	.	0r	.	2r	.	2f	.
2AA	.	.	.	2c	al-	2.cc	.
2FF	.	.	.	2.A	-le-	.	.
.	.	.	.	.	.	4b-y	.
2F	.	.	.	.	.	2a	.
.	.	.	.	4B-y	.	.	.
=55	=55	=55	=55	=55	=55	=55	=55
2E	.	1r	.	2c	.	2g	.
2D	.	.	.	2F	.	1f	.
1C	-lu-	1G	Cu-	1c	-lu-	.	.
.	.	.	.	.	.	2e	.
=56	=56	=56	=56	=56	=56	=56	=56
0BB-y	-ia,	1d	.	1F	-ia,	[0f	-re,
.	.	1d	-i	2r	.	.	.
.	.	.	.	2F	al-	.	.
=57	=57	=57	=57	=57	=57	=57	=57
2r	.	1d	pu-	2.B-y	-le-	0f_	.
2.BB-y	al-	.	.	.	.	.	.
.	.	.	.	4c	.	.	.
.	.	1d	-e-	2d	.	.	.
4C	.	.	.	.	.	.	.
4D	.	.	.	[2B-y	-lu-	.	.
4E	.	.	.	.	.	.	.
=58	=58	=58	=58	=58	=58	=58	=58
1F	.	1c	.	2B-]	.	0f]	.
.	.	.	.	2A	.	.	.
1BB-y	.	1B-y	.	1B-y	-ia,	.	.
=59	=59	=59	=59	=59	=59	=59	=59
1.F	-le-	1c	-ri-	2r	.	0r	.
.	.	.	.	2A	al-	.	.
.	.	1c	-le	2F	-le-	.	.
2E	.	.	.	2G	.	.	.
=60	=60	=60	=60	=60	=60	=60	=60
2D	.	1d	.	2A	.	0r	.
2.GG	.	.	.	2B-y	.	.	.
.	.	1B-y	de-	2G	.	.	.
4AA	.	.	.	.	.	.	.
2BB-y	.	.	.	[2g	-lu-	.	.
=61	=61	=61	=61	=61	=61	=61	=61
2C	.	1A	.	2g]	.	1r	.
2D	.	.	.	2f	-ia,	.	.
2GG	.	1G	-cus	2r	.	1b-y	al-
2G	-lu-	.	.	[2g	al-	.	.
=62	=62	=62	=62	=62	=62	=62	=62
2E	.	1c	.	4g]	.	1g	-le-
.	.	.	.	4f	.	.	.
2C	-ia,	.	.	4e	.	.	.
.	.	.	.	4d	.	.	.
2r	.	1A	prom-	1c	-le-	[1f	-lu-
2F	al-	.	.	.	.	.	.
=63	=63	=63	=63	=63	=63	=63	=63
2D	-le-	1B-y	-psit	1d	.	1f]	.
2BB-y	.	.	.	.	.	.	.
1C	.	1G	ho-	2r	.	1e	-ia,
.	.	.	.	2c	-lu-	.	.
=64	=64	=64	=64	=64	=64	=64	=64
2GG	-lu-	1G	-san-	2d	.	1g	al-
2BB-y	.	.	.	2B-y	.	.	.
2AA	.	1F	-na	2.c	.	1a	.
2FF	.	.	.	.	.	.	.
.	.	.	.	4d	.	.	.
=65	=65	=65	=65	=65	=65	=65	=65
1C	-ia,	1G	pi-	2e	.	0g	.
.	.	.	.	1f	.	.	.
2r	.	1G	-um,	.	.	.	.
2C	al-	.	.	2e	.	.	.
=66	=66	=66	=66	=66	=66	=66	=66
2.D	-le-	0r	.	2f	-ia,	2.f	-le-
.	.	.	.	2.d	al-	.	.
4C	.	.	.	.	.	4e	.
2BB-y	.	.	.	.	.	4f	.
.	.	.	.	4e	.	4g	.
2AA	.	.	.	2f	.	2a	.
=67	=67	=67	=67	=67	=67	=67	=67
1.GG	.	2r	.	2g	-le-	2b-y	.
.	.	2.G	pi-	2e	.	4g	.
.	.	.	.	.	.	4a	.
.	.	.	.	1d	-lu-	4b-y	.
.	.	4A	.	.	.	4a	.
2GG	.	2B-y	.	.	.	4g	.
.	.	.	.	.	.	4f	.
=68	=68	=68	=68	=68	=68	=68	=68
2AA	.	2c	.	[0cl	-ia.	2e	.
2FF	.	2A	.	.	.	1f	-lu-
1C	-lu-	1G	.	.	.	.	.
.	.	.	.	.	.	2e	.
=69	=69	=69	=69	=69	=69	=69	=69
00FF	-ia.	00F	-um.	00c]	.	00f	-ia.
=70||	=70||	=70||	=70||	=70||	=70||	=70||	=70||
*M2/1	*	*M2/1	*	*M2/1	*	*M2/1	*
*met(C|)	*	*met(C|)	*	*met(C|)	*	*met(C|)	*
!!section: Tertia pars: Resurrexit sicut dixit / Grates nunc omnes reddamus
!!!OMD: Tertia pars: Resurrexit sicut dixit / Grates nunc omnes reddamus
0BB-y	Re-	0r	.	0r	.	0r	.
=71	=71	=71	=71	=71	=71	=71	=71
0C	-sur-	0r	.	0r	.	0r	.
=72	=72	=72	=72	=72	=72	=72	=72
0D	-re-	0r	.	0f	Re-	0r	.
=73	=73	=73	=73	=73	=73	=73	=73
1C	.	1r	.	1g	-sur-	0r	.
1F	.	[1F	Gra-	[1a	-re-	.	.
=74	=74	=74	=74	=74	=74	=74	=74
1D	.	1F]	.	1a]	.	0r	.
1E	.	1G	-tes	[1g	.	.	.
=75	=75	=75	=75	=75	=75	=75	=75
0D	.	1A	nunc	2g]	.	0r	.
.	.	.	.	4f	.	.	.
.	.	.	.	4e	.	.	.
.	.	1A	o-	1f	.	.	.
=76	=76	=76	=76	=76	=76	=76	=76
0GG	.	[0G	-mnes	1.g	.	0b-y	Re-
.	.	.	.	2f	.	.	.
=77	=77	=77	=77	=77	=77	=77	=77
1C	.	0G_	.	1e	.	1cc	-sur-
1BB-y	.	.	.	2d	.	[1dd	-re-
.	.	.	.	[2g	.	.	.
=78	=78	=78	=78	=78	=78	=78	=78
0C	.	0G_	.	2g]	.	1dd]	.
.	.	.	.	4f	.	.	.
.	.	.	.	4e	.	.	.
.	.	.	.	2e	.	[1cc	.
.	.	.	.	4d	.	.	.
.	.	.	.	4c	.	.	.
=79	=79	=79	=79	=79	=79	=79	=79
1GG	-xit,	0G]	.	2.e	.	2cc]	.
.	.	.	.	.	.	4bnXi	.
.	.	.	.	4f	.	4a	.
2r	.	.	.	1d	.	1bni	.
2G	re-	.	.	.	.	.	.
=80	=80	=80	=80	=80	=80	=80	=80
2A	.	1r	.	1c	.	[0cc	-xit
1F	.	.	.	.	.	.	.
.	.	1A	red-	1f	.	.	.
4E	.	.	.	.	.	.	.
4D	.	.	.	.	.	.	.
=81	=81	=81	=81	=81	=81	=81	=81
2C	.	1c	-da-	1e	-xit	0cc_	.
2.AA	-sur-	.	.	.	.	.	.
.	.	1c	-mus	2r	.	.	.
4BB-y	.	.	.	.	.	.	.
2C	.	.	.	2e	sic-	.	.
=82	=82	=82	=82	=82	=82	=82	=82
2FF	.	1A	Do-	2f	-ut	0cc_	.
1F	-re-	.	.	2a	di-	.	.
.	.	1c	-mi-	1g	-xit,	.	.
2E	.	.	.	.	.	.	.
=83	=83	=83	=83	=83	=83	=83	=83
1F	-xit	0c	-no	2r	.	0cc]	.
.	.	.	.	2f	sic-	.	.
2r	.	.	.	2e	.	.	.
[2F	sic-	.	.	2f	-ut	.	.
=84	=84	=84	=84	=84	=84	=84	=84
2F]	.	1r	.	2.g	di-	0r	.
2E	-ut	.	.	.	.	.	.
.	.	.	.	4f	.	.	.
2.A	di-	[1c	De-	4e	.	.	.
.	.	.	.	4d	.	.	.
.	.	.	.	4c	.	.	.
4G	.	.	.	4B-y	.	.	.
=85	=85	=85	=85	=85	=85	=85	=85
2F	.	1c]	.	2A	.	0cc	sic-
4E	.	.	.	4G	.	.	.
4D	.	.	.	4F	.	.	.
1C	.	1c	-o,	2G	.	.	.
.	.	.	.	2A	.	.	.
=86	=86	=86	=86	=86	=86	=86	=86
0BB-y	-xit,	0d	qui	2.B-y	.	0f	-ut
.	.	.	.	4c	.	.	.
.	.	.	.	4d	.	.	.
.	.	.	.	4e	.	.	.
.	.	.	.	[2f	.	.	.
=87	=87	=87	=87	=87	=87	=87	=87
0r	.	0c	su-	2f]	.	[0g	di-
.	.	.	.	4e	.	.	.
.	.	.	.	4d	.	.	.
.	.	.	.	4e	.	.	.
.	.	.	.	4d	.	.	.
.	.	.	.	[2g	.	.	.
=88	=88	=88	=88	=88	=88	=88	=88
1r	.	0G	-a	4g]	.	0g]	.
.	.	.	.	4f	.	.	.
.	.	.	.	4e	.	.	.
.	.	.	.	4d	.	.	.
1C	sic-	.	.	4e	.	.	.
.	.	.	.	4d	.	.	.
.	.	.	.	4c	.	.	.
.	.	.	.	4B-y	.	.	.
=89	=89	=89	=89	=89	=89	=89	=89
2D	-ut	1r	.	0A	-xit,	0f	-xit,
2.F	di-	.	.	.	.	.	.
.	.	1c	na-	.	.	.	.
4G	.	.	.	.	.	.	.
2A	.	.	.	.	.	.	.
=90	=90	=90	=90	=90	=90	=90	=90
1G	.	1B-y	-ti-	1r	.	0r	.
2C	.	1c	-vi-	2r	.	.	.
[2F	.	.	.	[2a	al-	.	.
=91	=91	=91	=91	=91	=91	=91	=91
4F]	.	0A	-ta-	4a]	.	0r	.
4E	.	.	.	4g	.	.	.
4D	.	.	.	4f	.	.	.
4C	.	.	.	4e	.	.	.
1D	.	.	.	4f	.	.	.
.	.	.	.	4e	.	.	.
.	.	.	.	4d	.	.	.
.	.	.	.	4c	.	.	.
=92	=92	=92	=92	=92	=92	=92	=92
1E-X	.	0G	-te	0B-y	-le-	0b-y	al-
2BB-y	.	.	.	.	.	.	.
[2E-i	.	.	.	.	.	.	.
=93	=93	=93	=93	=93	=93	=93	=93
4E-]	.	1r	.	0e-X	.	[0g	-le-
4D	.	.	.	.	.	.	.
4C	.	.	.	.	.	.	.
4BB-y	.	.	.	.	.	.	.
1C	.	1c	nos	.	.	.	.
=94	=94	=94	=94	=94	=94	=94	=94
1GG	-xit,	1B-y	li-	1d	.	0g]	.
1BB-y	.	1d	-be-	2.D	.	.	.
.	.	.	.	4E	.	.	.
=95	=95	=95	=95	=95	=95	=95	=95
0FF	.	0c	-ra-	4F	.	0a	.
.	.	.	.	4G	.	.	.
.	.	.	.	4A	.	.	.
.	.	.	.	4B-y	.	.	.
.	.	.	.	2c	.	.	.
.	.	.	.	4f	.	.	.
.	.	.	.	4e	.	.	.
=96	=96	=96	=96	=96	=96	=96	=96
1r	.	0G	-vit	4d	.	0b-y	.
.	.	.	.	4c	.	.	.
.	.	.	.	2e	.	.	.
2r	.	.	.	1d	.	.	.
2GG	al-	.	.	.	.	.	.
=97	=97	=97	=97	=97	=97	=97	=97
2.AA	-le-	0r	.	2c	.	0cc	.
.	.	.	.	2A	.	.	.
4BB-y	.	.	.	.	.	.	.
2C	-lu-	.	.	2G	.	.	.
2AA	.	.	.	[2c	-lu-	.	.
=98	=98	=98	=98	=98	=98	=98	=98
1D	-ia,	1r	.	2c]	.	1f	.
.	.	.	.	2B-y	.	.	.
1C	.	1c	de	2c	.	1e	.
.	.	.	.	2A	.	.	.
=99	=99	=99	=99	=99	=99	=99	=99
0r	.	1B-y	di-	1G	-ia,	2.g	.
.	.	.	.	.	.	4f	.
.	.	1c	-a-	1r	.	2g	.
.	.	.	.	.	.	[2a	-lu-
=100	=100	=100	=100	=100	=100	=100	=100
1r	.	1A	-bo-	1r	.	4a]	.
.	.	.	.	.	.	4g	.
.	.	.	.	.	.	1f	.
1C	al-	1G	-li-	2r	.	.	.
.	.	.	.	[2c	al-	2e	.
=101	=101	=101	=101	=101	=101	=101	=101
1D	-le-	0F	-ca	2c]	.	0f	-ia,
.	.	.	.	4B-y	.	.	.
.	.	.	.	4A	.	.	.
1D	-lu-	.	.	1B-y	.	.	.
=102	=102	=102	=102	=102	=102	=102	=102
0C	-ia,	1r	.	2c	.	0r	.
.	.	.	.	2.e	-le-	.	.
.	.	1G	po-	.	.	.	.
.	.	.	.	4f	.	.	.
.	.	.	.	[2g	.	.	.
=103	=103	=103	=103	=103	=103	=103	=103
0r	.	1A	-te-	2g]	.	0r	.
.	.	.	.	4f	.	.	.
.	.	.	.	4e	.	.	.
.	.	1A	-sta-	1f	.	.	.
=104	=104	=104	=104	=104	=104	=104	=104
2r	.	0G	-te,	1g	.	2r	.
1G	al-	.	.	.	.	1b-y	al-
.	.	.	.	2d	.	.	.
2E	-le-	.	.	2g	.	2g	-le-
=105	=105	=105	=105	=105	=105	=105	=105
2F	.	1r	.	2f	.	2a	.
2G	.	.	.	4e	.	2b-y	.
.	.	.	.	4d	.	.	.
2A	.	2r	.	2c	.	1cc	-lu-
[2F	.	2c	po-	[2A	-lu-	.	.
=106	=106	=106	=106	=106	=106	=106	=106
2F]	.	2A	-te-	2A]	.	1f	-ia,
2D	.	2B-y	.	2F	.	.	.
2E	.	2c	.	2G	.	1r	.
2F	.	2d	-sta-	2A	.	.	.
=107	=107	=107	=107	=107	=107	=107	=107
2G	.	1G	-te,	2B-y	.	2r	.
1C	.	.	.	2G	-ia,	2g	al-
.	.	1r	.	2r	.	2e	-le-
2AA	.	.	.	2c	al-	2f	.
=108	=108	=108	=108	=108	=108	=108	=108
2BB-y	.	2r	.	2d	-le-	2g	.
2C	.	2c	po-	2e	.	2a	.
2D	.	2A	-te-	2f	.	1f	.
[2BB-y	.	[2d	.	2F	-lu-	.	.
=109	=109	=109	=109	=109	=109	=109	=109
2BB-]	.	2d]	.	1G	-ia,	2d	.
2GG	.	2B-y	.	.	.	2e	.
2AA	.	2c	-sta-	2r	.	2f	.
2BB-y	.	4B-y	.	2d	al-	2g	.
.	.	4A	.	.	.	.	.
=110	=110	=110	=110	=110	=110	=110	=110
2C	-lu-	4G	.	2c	.	2e	.
.	.	4F	.	.	.	.	.
2AA	.	2A	.	2c	-le-	1f	-lu-
2BB-y	.	1G	-te.	2d	.	.	.
2C	.	.	.	2G	.	2e	.
=111	=111	=111	=111	=111	=111	=111	=111
[0FFl	-ia.	[0Fl	.	2.A	-lu-	[0fl	-ia.
.	.	.	.	4B-y	.	.	.
.	.	.	.	4c	.	.	.
.	.	.	.	4A	.	.	.
.	.	.	.	2d	.	.	.
=112	=112	=112	=112	=112	=112	=112	=112
00FF]	.	00F]	.	00c	-ia.	00f]	.
=113||	=113||	=113||	=113||	=113||	=113||	=113||	=113||
*M2/1	*	*M2/1	*	*M2/1	*	*M2/1	*
*met(C|)	*	*met(C|)	*	*met(C|)	*	*met(C|)	*
!!section: Quarta pars: Ora pro nobis / Te ergo quaesumus
!!!OMD: Quarta pars: Ora pro nobis / Te ergo quaesumus
0F	O-	0r	.	0r	.	0r	.
=114	=114	=114	=114	=114	=114	=114	=114
0BB-y	-ra	0r	.	0r	.	0r	.
=115	=115	=115	=115	=115	=115	=115	=115
1r	.	0c	O-	0r	.	0r	.
1C	pro	.	.	.	.	.	.
=116	=116	=116	=116	=116	=116	=116	=116
1.D	no-	0F	-ra	0r	.	0r	.
2C	.	.	.	.	.	.	.
=117	=117	=117	=117	=117	=117	=117	=117
1D	.	1r	.	0r	.	0r	.
1E	.	1G	pro	.	.	.	.
=118	=118	=118	=118	=118	=118	=118	=118
2D	.	1.A	no-	0r	.	0r	.
1F	.	.	.	.	.	.	.
2E	.	2G	.	.	.	.	.
=119	=119	=119	=119	=119	=119	=119	=119
2D	.	1A	.	0r	.	0r	.
2C	.	.	.	.	.	.	.
1BB-y	.	1B-y	.	.	.	.	.
=120	=120	=120	=120	=120	=120	=120	=120
2.F	.	2.A	.	0r	.	0r	.
4E	.	4G	.	.	.	.	.
2D	.	4F	.	.	.	.	.
.	.	4E	.	.	.	.	.
2C	.	[2G	.	.	.	.	.
=121	=121	=121	=121	=121	=121	=121	=121
2BB-y	.	2G]	.	0r	.	0r	.
2AA	.	1F	.	.	.	.	.
1GG	-bis	.	.	.	.	.	.
.	.	2E	-bis	.	.	.	.
=122	=122	=122	=122	=122	=122	=122	=122
*M3/3%2	*	*M3/3%2	*	*	*	*	*
*met(3)	*	*met(3)	*	*	*	*	*
*Xtuplet	*	*Xtuplet	*	*	*	*	*
3%2.FF	De-	3%2.F	De-	0r	.	[0cc	O-
3GG	.	6E	.	.	.	.	.
.	.	6D	.	.	.	.	.
3AA	.	3C	.	.	.	.	.
3BB-y	.	3D	.	.	.	.	.
=123	=123	=123	=123	=123	=123	=123	=123
3C	.	3E	.	0r	.	0cc]	.
3D	.	3F	.	.	.	.	.
3E	.	3G	.	.	.	.	.
3%2F	.	3A	.	.	.	.	.
.	.	3F	.	.	.	.	.
3E	.	3G	.	.	.	.	.
=124	=124	=124	=124	=124	=124	=124	=124
3%2.D	.	3A	.	0d	Te	0f	-ra
.	.	3G	.	.	.	.	.
.	.	3F	.	.	.	.	.
3C	.	3E	.	.	.	.	.
3BB-y	.	[3%2D	.	.	.	.	.
3AA	.	.	.	.	.	.	.
=125	=125	=125	=125	=125	=125	=125	=125
3%2.GG	.	3%2D]	.	1d	er-	1r	.
.	.	3%4F	.	.	.	.	.
3AA	.	.	.	1d	-go	1g	pro
3BB-y	.	.	.	.	.	.	.
3GG	.	.	.	.	.	.	.
=126	=126	=126	=126	=126	=126	=126	=126
3%2.D	.	3%2.F	.	1.d	quae-	0a	.
3E	.	3G	.	.	.	.	.
3F	.	3%2A	.	.	.	.	.
.	.	.	.	2d	-su-	.	.
3D	.	.	.	.	.	.	.
=127	=127	=127	=127	=127	=127	=127	=127
3%2G	.	3%2.B-y	.	0d	-mus,	0g	.
3GG	.	.	.	.	.	.	.
3AA	.	3A	.	.	.	.	.
3BB-y	.	3%2G	.	.	.	.	.
3GG	.	.	.	.	.	.	.
=128	=128	=128	=128	=128	=128	=128	=128
3%2.D	.	3%2F	.	0r	.	0a	.
.	.	3%2D	-um,	.	.	.	.
3E	.	.	.	.	.	.	.
3F	.	[3%2d	De-	.	.	.	.
3D	.	.	.	.	.	.	.
=129	=129	=129	=129	=129	=129	=129	=129
3%2G	.	3d]	.	1.d	fa-	0b-y	no-
.	.	3c	.	.	.	.	.
3GG	.	3B-y	.	.	.	.	.
3AA	.	3A	.	.	.	.	.
3BB-y	.	3%2G	.	.	.	.	.
.	.	.	.	2d	-mu-	.	.
3GG	.	.	.	.	.	.	.
=130	=130	=130	=130	=130	=130	=130	=130
*tuplet	*	*tuplet	*	*	*	*	*
*M2/1	*	*M2/1	*	*	*	*	*
*met(C|)	*	*met(C|)	*	*	*	*	*
1D	-um,	2F	.	1d	-lis	[0a	-bis
.	.	2D	.	.	.	.	.
1AA	.	1A	-um,	1c	tu-	.	.
=131	=131	=131	=131	=131	=131	=131	=131
1.AA	De-	1E	.	1e	-is	0a]	.
.	.	[1E	De-	[1e	sub-	.	.
2BB-y	.	.	.	.	.	.	.
=132	=132	=132	=132	=132	=132	=132	=132
1C	.	2E]	.	1e]	.	0g	.
.	.	2F	.	.	.	.	.
2.GG	.	1G	.	1d	-ve-	.	.
4AA	.	.	.	.	.	.	.
=133	=133	=133	=133	=133	=133	=133	=133
4BB-y	.	2.D	.	0d	-ni,	0f	.
4AA	.	.	.	.	.	.	.
4BB-y	.	.	.	.	.	.	.
4C	.	4E	.	.	.	.	.
2D	.	4F	.	.	.	.	.
.	.	4E	.	.	.	.	.
2BB-y	.	4F	.	.	.	.	.
.	.	4G	.	.	.	.	.
=134	=134	=134	=134	=134	=134	=134	=134
2C	.	1.A	.	1r	.	0e	.
2.AA	.	.	.	.	.	.	.
.	.	.	.	1A	quos	.	.
4BB-y	.	.	.	.	.	.	.
[2C	.	4G	.	.	.	.	.
.	.	4F	.	.	.	.	.
=135	=135	=135	=135	=135	=135	=135	=135
2C]	.	2E	.	1c	pre-	1r	.
4BB-y	.	1G	.	.	.	.	.
4AA	.	.	.	.	.	.	.
1GG	-um,	.	.	1d	-ti-	1g	De-
.	.	4F	.	.	.	.	.
.	.	4E	.	.	.	.	.
=136	=136	=136	=136	=136	=136	=136	=136
2r	.	1D	-um,	1d	-o-	0a	.
2D	o-	.	.	.	.	.	.
2F	-ra	2r	.	1d	-so	.	.
2F	pro	2A	o-	.	.	.	.
=137	=137	=137	=137	=137	=137	=137	=137
2.C	no-	2c	-ra	0e	san-	[0g	.
.	.	2c	pro	.	.	.	.
4D	.	.	.	.	.	.	.
4E	.	2.G	no-	.	.	.	.
4D	.	.	.	.	.	.	.
4E	.	.	.	.	.	.	.
4F	.	4A	.	.	.	.	.
=138	=138	=138	=138	=138	=138	=138	=138
2.G	.	4B-y	.	1d	-gui-	0g]	.
.	.	4c	.	.	.	.	.
.	.	2d	.	.	.	.	.
4F	.	.	.	.	.	.	.
4E	.	1G	-bis	1c	-ne	.	.
4D	.	.	.	.	.	.	.
2E	.	.	.	.	.	.	.
=139	=139	=139	=139	=139	=139	=139	=139
1D	-bis	2r	.	0d	re-	2.f	.
.	.	2A	De-	.	.	.	.
.	.	.	.	.	.	4g	.
2r	.	2F	.	.	.	2a	.
[2GG	De-	[2G	.	.	.	[2b-y	.
=140	=140	=140	=140	=140	=140	=140	=140
4GG]	.	2G]	.	1d	-de-	4b-]	.
4AA	.	.	.	.	.	4cc	.
2BB-y	.	2F	.	.	.	2dd	.
2.C	.	4E	.	1e	.	2g	.
.	.	4C	.	.	.	.	.
.	.	[2c	.	.	.	2a	.
4D	.	.	.	.	.	.	.
=141	=141	=141	=141	=141	=141	=141	=141
2E	.	4c]	.	0c	-mi-	2g	.
.	.	4B-y	.	.	.	.	.
2F	.	2A	.	.	.	1f	.
1C	.	1G	.	.	.	.	.
.	.	.	.	.	.	2e	.
=142	=142	=142	=142	=142	=142	=142	=142
00FF	-um.	00F	-um.	00A	-sti.	00f	-um.
=143||	=143||	=143||	=143||	=143||	=143||	=143||	=143||
*M2/1	*	*M2/1	*	*M2/1	*	*M2/1	*
*met(C|)	*	*met(C|)	*	*met(C|)	*	*met(C|)	*
!!section: Quinta pars: Alle-, Domine nate matris / Dies est laetitiae
!!!OMD: Quinta pars: Alle-, Domine nate matris / Dies est laetitiae
0r	.	0r	.	1B-y	Al-	0r	.
.	.	.	.	1B-y	-le-,	.	.
=144	=144	=144	=144	=144	=144	=144	=144
1BB-y	Al-	0r	.	2.d	Do-	0r	.
.	.	.	.	4e	.	.	.
1BB-y	-le-,	.	.	1f	.	.	.
=145	=145	=145	=145	=145	=145	=145	=145
1D	Do-	0r	.	2f	-mi-	0r	.
.	.	.	.	2f	-ne	.	.
1E	.	.	.	1g	na-	.	.
=146	=146	=146	=146	=146	=146	=146	=146
1.F	.	0r	.	2.f	.	1f	Al-
.	.	.	.	4e	.	.	.
.	.	.	.	2d	.	1f	-le-,
2F	-mi-	.	.	2c	.	.	.
=147	=147	=147	=147	=147	=147	=147	=147
2.F	-ne	1F	Di-	2d	.	1a	Do-
.	.	.	.	2c	.	.	.
4E	.	.	.	.	.	.	.
2D	.	1F	-es	2d	.	1b-y	-mi-
2D	na-	.	.	2f	.	.	.
=148	=148	=148	=148	=148	=148	=148	=148
2.C	-te	1G	est	2e	.	0cc	-ne
.	.	.	.	1g	.	.	.
4BB-y	.	.	.	.	.	.	.
2AA	.	1A	lae-	.	.	.	.
2AA	ma-	.	.	2f	.	.	.
=149	=149	=149	=149	=149	=149	=149	=149
1GG	-tris,	1B-y	-ti-	2g	-te	0r	.
.	.	.	.	2d	.	.	.
2r	.	1G	-ti-	1e	ma-	.	.
2C	De-	.	.	.	.	.	.
=150	=150	=150	=150	=150	=150	=150	=150
2.D	.	0F	-ae	2f	.	1r	.
.	.	.	.	2d	.	.	.
4E	.	.	.	.	.	.	.
1F	.	.	.	2c	.	[1cc	na-
.	.	.	.	[2f	.	.	.
=151	=151	=151	=151	=151	=151	=151	=151
1C	-us	1G	in	2f]	.	1cc]	.
.	.	.	.	2e	.	.	.
2r	.	1F	or-	1f	-tris,	1cc	-te
2FF	al-	.	.	.	.	.	.
=152	=152	=152	=152	=152	=152	=152	=152
1BB-y	.	1D	-tu	2r	.	1dd	ma-
.	.	.	.	2f	De-	.	.
1C	.	1E	re-	2e	.	1cc	-tris,
.	.	.	.	2e	-us	.	.
=153	=153	=153	=153	=153	=153	=153	=153
2D	.	0F	-ga-	2.d	al-	1b-y	De-
2BB-y	.	.	.	.	.	.	.
.	.	.	.	4e	.	.	.
2.D	.	.	.	2f	.	2a	-us
.	.	.	.	2d	.	[2a	al-
4E	.	.	.	.	.	.	.
=154	=154	=154	=154	=154	=154	=154	=154
2F	.	1F	-li,	2c	.	2a]	.
2D	.	.	.	1f	.	4g	.
.	.	.	.	.	.	4f	.
1G	-me,	1r	.	.	.	1g	.
.	.	.	.	2e	.	.	.
=155	=155	=155	=155	=155	=155	=155	=155
2r	.	1F	nam	4f	.	0a	-me,
.	.	.	.	4d	.	.	.
2F	no-	.	.	2.f	.	.	.
2D	-bis	1F	pro-	.	.	.	.
.	.	.	.	4e	.	.	.
2F	con-	.	.	[2d	.	.	.
=156	=156	=156	=156	=156	=156	=156	=156
1E	.	1G	-ces-	2d]	.	0r	.
.	.	.	.	2c#i	.	.	.
2.D	.	1A	-sit	1d	-me	.	.
4C	.	.	.	.	.	.	.
=157	=157	=157	=157	=157	=157	=157	=157
2BB-y	.	1B-y	ho-	2r	.	1r	.
2GG	.	.	.	2d	no-	.	.
1C	.	1G	-di-	1e	.	[1cc	no-
=158	=158	=158	=158	=158	=158	=158	=158
1FF	-fer	1F	-e	2f	-bis	1cc]	.
.	.	.	.	2.a	con-	.	.
1r	.	2r	.	.	.	1cc	-bis
.	.	.	.	4g	.	.	.
.	.	2F	de	[2f	.	.	.
=159	=159	=159	=159	=159	=159	=159	=159
1r	.	1G	ven-	2f]	.	1b-y	con-
.	.	.	.	2e	.	.	.
2r	.	1F	-tre	2f	-fer	1a	-fer
2FF	prae-	.	.	2c	prae-	.	.
=160	=160	=160	=160	=160	=160	=160	=160
1BB-y	-sta-	1D	vir-	1d	-sta-	2g	prae-
.	.	.	.	.	.	2f	-sta-
1C	.	1E	-gi-	1c	-que	2e	-que
.	.	.	.	.	.	2g	vi-
=161	=161	=161	=161	=161	=161	=161	=161
1FF	-que	0F	-na-	2r	.	2a	.
.	.	.	.	2.A	vi-	2.cc	-ve-
2r	.	.	.	.	.	.	.
.	.	.	.	4G	.	4b-y	.
[2F	vi-	.	.	4A	.	[2a	.
.	.	.	.	4B-y	.	.	.
=162	=162	=162	=162	=162	=162	=162	=162
4F]	.	1F	-li	2c	.	4a]	.
4E	.	.	.	.	.	4g	.
2D	-ve-	.	.	2F	.	1f	.
1C	-re.	1r	.	1G	-ve-	.	.
.	.	.	.	.	.	2e	.
=163	=163	=163	=163	=163	=163	=163	=163
2r	.	1c	pu-	1F	-re.	1f	-re.
2F	Quo-	.	.	.	.	.	.
2.F	-ni-	1c	-er	2r	.	2f	Quo-
.	.	.	.	[2f	Quo-	2f	-ni-
4E	.	.	.	.	.	.	.
=164	=164	=164	=164	=164	=164	=164	=164
2D	.	1d	ad-	1f]	.	2a	-am
2BB-y	-am,	.	.	.	.	2b-y	te
2r	.	1c	-mi-	2e	-ni-	1cc	de-
2F	quo-	.	.	2f	-am	.	.
=165	=165	=165	=165	=165	=165	=165	=165
2.F	-ni-	1A	-ra-	1c	te	1cc	-cet
4E	.	.	.	.	.	.	.
2D	.	1B-y	-bi-	2d	de-	1r	.
2BB-y	-am	.	.	[2f	.	.	.
=166	=166	=166	=166	=166	=166	=166	=166
2F	te	1c	-lis,	4f]	.	1cc	laus
.	.	.	.	4e	.	.	.
2A	.	.	.	1c	-cet	.	.
1G	de-	1r	.	.	.	1dd	ho-
.	.	.	.	2B-y	.	.	.
=167	=167	=167	=167	=167	=167	=167	=167
2C	-cet	1c	to-	2.c	laus	1cc	-nor,
2.F	laus	.	.	.	.	.	.
.	.	.	.	4B-y	.	.	.
.	.	1c	-tus	2A	.	2r	.
4G	.	.	.	.	.	.	.
2A	.	.	.	2F	ho-	2cc	o
=168	=168	=168	=168	=168	=168	=168	=168
2G	.	1d	de-	4B-y	-nor,	2b-y	Do-
.	.	.	.	4c	.	.	.
1F	ho-	.	.	4d	.	1a	.
.	.	.	.	4e	.	.	.
.	.	1c	-le-	2f	.	.	.
2E	.	.	.	2g	.	2g	-mi-
=169	=169	=169	=169	=169	=169	=169	=169
1F	-nor,	1A	-cta-	2c	o	1a	-ne,
.	.	.	.	1f	Do-	.	.
1C	.	1G	-bi-	.	.	2r	.
.	.	.	.	2e	-mi-	[2cc	qui
=170	=170	=170	=170	=170	=170	=170	=170
2r	.	0F	-lis	1f	-ne,	2cc]	.
2FF	o	.	.	.	.	2cc	de
2.BB-y	Do-	.	.	1r	.	1b-y	mor-
4C	.	.	.	.	.	.	.
=171	=171	=171	=171	=171	=171	=171	=171
4D	.	1D	in	2r	.	1a	-te
4E	.	.	.	.	.	.	.
2F	-mi-	.	.	2F	qui	.	.
1C	-ne,	1E	hu-	2.c	de	1g	sur-
.	.	.	.	4B-y	.	.	.
=172	=172	=172	=172	=172	=172	=172	=172
2r	.	1F	-ma-	2A	.	0f	-ge-
2.D	qui	.	.	2F	mor-	.	.
.	.	1D	-ni-	2A	-te	.	.
4E	.	.	.	.	.	.	.
2F	.	.	.	2B-y	.	.	.
=173	=173	=173	=173	=173	=173	=173	=173
2G	de	0C	-ta-	1.c	sur-	1e	-bas,
2A	mor-	.	.	.	.	.	.
2.G	.	.	.	.	.	[1g	Rex
.	.	.	.	4B-y	.	.	.
4F	.	.	.	4A	.	.	.
=174	=174	=174	=174	=174	=174	=174	=174
4E	.	1C	-te,	2G	.	1g]	.
4D	.	.	.	.	.	.	.
2E	.	.	.	2.c	.	.	.
1C	-te	1r	.	.	.	1g	pi-
.	.	.	.	4d	.	.	.
.	.	.	.	2e	.	.	.
=175	=175	=175	=175	=175	=175	=175	=175
2r	.	1F	qui	1A	-ge-	0f	-e,
2.D	sur-	.	.	.	.	.	.
.	.	1F	in-	1d	.	.	.
4E	.	.	.	.	.	.	.
[2F	.	.	.	.	.	.	.
=176	=176	=176	=176	=176	=176	=176	=176
2F]	.	1G	-e-	1c	-bas,	1r	.
2E	-ge-	.	.	.	.	.	.
2.F	-bas,	1A	-sti-	2r	.	1f	fac
.	.	.	.	[2f	Rex	.	.
4E	.	.	.	.	.	.	.
=177	=177	=177	=177	=177	=177	=177	=177
2D	.	1B-y	-ma-	4f]	.	1f	nos
.	.	.	.	4e	.	.	.
2BB-y	Rex	.	.	1d	pi-	.	.
1E	pi-	1G	-bi-	.	.	1g	post
.	.	.	.	2c#i	.	.	.
=178	=178	=178	=178	=178	=178	=178	=178
0D	.	0F	-lis	0d	-e,	1b-y	te
.	.	.	.	.	.	1a	sur-
=179	=179	=179	=179	=179	=179	=179	=179
1GG	-e,	1G	est	2r	.	1g	-ge-
.	.	.	.	2.d	fac	.	.
2r	.	1F	et	.	.	1a	-re,
.	.	.	.	4e	.	.	.
[2D	fac	.	.	4f	.	.	.
.	.	.	.	4g	.	.	.
=180	=180	=180	=180	=180	=180	=180	=180
4D]	.	1D	in-	1a	.	0r	.
4E	.	.	.	.	.	.	.
2F	nos	.	.	.	.	.	.
2G	post	1E	-ef-	1g	.	.	.
2C	te	.	.	.	.	.	.
=181	=181	=181	=181	=181	=181	=181	=181
2D	sur-	1F	-fa-	2f	.	1f	al-
4BB-y	-ge-	.	.	2.F	nos	.	.
4C	.	.	.	.	.	.	.
4D	.	1D	-bi-	.	.	1f	-le-
4E	.	.	.	4G	.	.	.
[2F	.	.	.	4A	.	.	.
.	.	.	.	4F	.	.	.
=182	=182	=182	=182	=182	=182	=182	=182
2F]	.	0C	-lis	1c	.	0g	-lu-
4E	.	.	.	.	.	.	.
4D	.	.	.	.	.	.	.
1E	-re,	.	.	2r	.	.	.
.	.	.	.	[2c	post	.	.
=183	=183	=183	=183	=183	=183	=183	=183
2F	al-	1D	in	2c]	.	1f	-ia,
2F	-le-	.	.	2B-y	te	.	.
1G	-lu-	1C	di-	2.c	sur-	1r	.
.	.	.	.	4B-y	.	.	.
=184	=184	=184	=184	=184	=184	=184	=184
1F	-ia,	1D	-vi-	2A	.	2f	al-
.	.	.	.	2F	-ge-	2f	-le-
2r	.	1E	-ni-	1c	-re,	1g	-lu-
2C	al-	.	.	.	.	.	.
=185	=185	=185	=185	=185	=185	=185	=185
2D	-le-	0F	-ta-	2r	.	1f	-ia,
2BB-y	.	.	.	1F	al-	.	.
2.D	-lu-	.	.	.	.	2r	.
.	.	.	.	[2A	-le-	2f	al-
4E	.	.	.	.	.	.	.
=186	=186	=186	=186	=186	=186	=186	=186
1F	-ia,	1F	-te,	4A]	.	2.a	-le-
.	.	.	.	4B-y	.	.	.
.	.	.	.	2c	.	.	.
.	.	.	.	.	.	4b-y	.
2r	.	1r	.	2F	.	2cc	.
2F	al-	.	.	[2A	.	2a	.
=187	=187	=187	=187	=187	=187	=187	=187
2.A	-le-	1F	al-	4A]	.	2.cc	.
.	.	.	.	4B-y	.	.	.
.	.	.	.	2c	.	.	.
4B-y	.	.	.	.	.	4b-y	.
1c	-lu-	1F	-le-	4F	-lu-	2.a	.
.	.	.	.	4G	.	.	.
.	.	.	.	4A	.	.	.
.	.	.	.	4B-y	.	8gL	.
.	.	.	.	.	.	8fJ	.
=188	=188	=188	=188	=188	=188	=188	=188
0C	-ia,	0G	-lu-	1c	-ia,	2e	.
.	.	.	.	.	.	1f	.
.	.	.	.	1r	.	.	.
.	.	.	.	.	.	2e	-lu-
=189	=189	=189	=189	=189	=189	=189	=189
1r	.	[0Fl	-ia.	1c	al-	[0fl	-ia.
2r	.	.	.	1c	-le-	.	.
2F	al-	.	.	.	.	.	.
=190	=190	=190	=190	=190	=190	=190	=190
2D	-le-	0F_	.	0d	-lu-	0f_	.
2BB-y	.	.	.	.	.	.	.
2.D	.	.	.	.	.	.	.
4E	.	.	.	.	.	.	.
=191	=191	=191	=191	=191	=191	=191	=191
2.F	.	0F_	.	1c	-ia,	0f_	.
4E	.	.	.	.	.	.	.
2D	.	.	.	1r	.	.	.
4C	.	.	.	.	.	.	.
4BB-y	.	.	.	.	.	.	.
=192	=192	=192	=192	=192	=192	=192	=192
2AA	.	0F_	.	2c	al-	0f_	.
2FF	.	.	.	2c	-le-	.	.
1BB-y	-lu-	.	.	1d	-lu-	.	.
=193	=193	=193	=193	=193	=193	=193	=193
00FFl	-ia.	00F]	.	00cl	-ia.	00f]	.
==	==	==	==	==	==	==	==
*-	*-	*-	*-	*-	*-	*-	*-
!!!system-decoration: [*]
!!!RDF**kern: i = editorial accidental
!!!RDF**kern: l = terminal long
!!!!PTL: <i> New Senfl Edition: Motets for Four Voices (N-V) </i>
!!!PPR: Hollitzer Verlag
!!!PC#: Denkmäler der Tonkunst in Österreich 163.2
!!!PDT: 2022
!!!PED: Scott Lee Edwards, Stefan Gasch, and Sonja Tröster
!!!YEC: Copyright 2022 Denkmäler der Tonkunst in Österreich
!!!YEM: CC-BY-NC 4.0 (https://creativecommons.org/licenses/by-nc/4.0/legalcode)
!!!EED: Benjamin Ory
!!!EEV: 2024/5/14
!!!verovio: header encoded
!!!header-left: @{PTL}\n@{PED}, eds.\n@{PC#} (@{PDT})&nbsp;\n
!!!header-right:
!!!header-center:
